src/features/Work/assets/telus_phone.svg

<svg xmlns="http://www.w3.org/2000/svg" width="405.67004" height="457.17619" viewBox="0 0 405.67004 457.17619" xmlns:xlink="http://www.w3.org/1999/xlink"><g><path d="M155.53307,279.99431c2.30531,4.46264,1.87197,9.26954-.9679,10.73656-2.83986,1.46701-7.01082-.9614-9.31612-5.42405-1.00911-1.95345-1.49335-3.97285-1.48081-5.74922l-9.53101-19.03203,9.02648-4.28245,8.43766,19.21639c1.45595,1.01779,2.82259,2.58135,3.8317,4.5348Z" fill="#ffb6b6"/><g><polygon points="84.60533 451.71752 92.73168 451.71672 96.59743 420.3719 84.60368 420.37272 84.60533 451.71752" fill="#ffb6b6"/><path d="M112.44719,451.53317h0c.25301,.42612,.38653,1.80152,.38653,2.29709h0c0,1.52326-1.23484,2.7581-2.75809,2.7581h-25.16634c-1.03917,0-1.88158-.84241-1.88158-1.88158v-1.04776s-1.24497-3.14904,1.3182-7.03041c0,0,3.18565,3.03919,7.94583-1.72099l1.40373-2.54295,10.1611,7.43128,5.63215,.69326c1.23218,.15167,2.32465-.02354,2.95847,1.04395Z" fill="#2f2e41"/></g><g><polygon points="46.48117 451.71752 54.60752 451.71672 58.47327 420.3719 46.47952 420.37272 46.48117 451.71752" fill="#ffb6b6"/><path d="M74.32303,451.53317h0c.25301,.42612,.38653,1.80152,.38653,2.29709h0c0,1.52326-1.23484,2.7581-2.75809,2.7581h-25.16634c-1.03917,0-1.88158-.84241-1.88158-1.88158v-1.04776s-1.24497-3.14904,1.3182-7.03041c0,0,3.18565,3.03919,7.94583-1.72099l1.40373-2.54295,10.1611,7.43128,5.63215,.69326c1.23218,.15167,2.32465-.02354,2.95847,1.04395Z" fill="#2f2e41"/></g><polygon points="34.97848 266.77741 31.55506 287.6983 42.2057 355.40594 44.86836 437.18763 59.24792 437.18763 66.55002 359.9705 65.78926 308.99958 82.90636 437.94839 97.849 437.94839 99.26269 276.28691 34.97848 266.77741" fill="#2f2e41"/><path d="M52.85634,158.36912h26.92012l23.29004,13.69368c-3.62484-.92135-6.42515,32.70809-6.5204,62.42281-.00633,1.97451-1.96294,4.24471-1.94483,6.17336,.0156,1.66172,2.00271,2.98925,2.03722,4.60133,.03225,1.50656,.07291,2.98829,.12227,4.4393,.04098,1.20464-2.21263,2.80044-2.15949,3.95936,.06788,1.48053,2.44639,2.50867,2.53471,3.90206,.54298,8.56572,1.47886,15.35199,2.88747,18.72588,0,0-60.10003,16.73672-64.66459-9.12912,0,0,.26066-9.29699,.22408-22.13565-.00325-1.13908-.97335-2.17236-.98166-3.36318-.00618-.88537,.95064-1.91761,.94128-2.82771-.0077-.74818-.93124-1.40943-.94128-2.17229-.00598-.45469,.90232-1.00655,.89545-1.46594-.36498-24.41361-2.00419-55.18077-7.74547-63.13023l25.10508-13.69368Z" fill="#6587e4"/><path d="M79.48294,158.36912s17.4438,6.33911,22.97888,11.38909c2.94129,2.68351,22.66672,53.27551,22.66672,53.27551l27.39784,47.71441-14.24142,5.40954-29.13238-43.99483-12.93292-28.90888-16.73672-44.88484Z" fill="#6587e4"/><path d="M43.30131,281.79985c2.54422,4.33089,2.37252,9.15422-.3835,10.77327-2.75602,1.61905-7.05268-.57931-9.59689-4.9102-1.11369-1.89578-1.70686-3.8859-1.79079-5.66034l-10.55035-18.48644,8.78063-4.76625,9.46862,18.7299c1.50906,.93723,2.95859,2.42428,4.07228,4.32006Z" fill="#ffb6b6"/><path d="M49.05254,181.95267l-7.6076-17.49748s-17.87786,5.7057-17.87786,14.07406c0,0-10.65064,63.90383-9.12912,79.87979l9.88988,17.49748,14.07406-11.03102-8.74874-20.16014,19.39938-62.76269Z" fill="#6587e4"/><polygon points="33.40674 295.62938 42.38042 277.80843 52.85634 292.26286 43.42802 301.39198 33.40674 295.62938" fill="#2f2e41"/><circle cx="66.06273" cy="135.93185" r="17.41061" fill="#ffb6b6"/><path d="M79.63923,116.48275c-3.02557-.96901-4.45717-4.56794-7.22476-6.12798-3.06065-1.72524-6.72217-2.80225-10.09728-1.8261-2.07087,.59896-3.87505,1.92276-5.94739,2.51668-.36226,.10383-.74339,.17541-1.13032,.21227-2.2287,.21232-4.14206,1.54889-5.25588,3.49095l-.02909,.05018c-.65386,1.11896-1.58328,2.04571-2.40816,3.04522-3.01009,3.64763-4.63927,8.38811-4.60573,13.11724,.03603,5.08346,1.99201,10.13051,5.39105,13.91061l.86829-.40033c2.09834,1.81253,4.19667,3.62506,6.29505,5.43758-1.14194-4.12047-2.29454-8.38517-1.68998-12.6179,.60453-4.23281,3.451-8.45577,7.64789-9.273,1.58769-.30907,3.2622-.12225,4.80339-.61304,1.54123-.4908,2.96079-2.07527,2.43206-3.60399,.95434,2.52305,4.51392,2.37403,6.96388,3.5028,5.48344,2.52636,3.47618-1.37793,8.23617,2.33599,1.60783-8.91089,7.76669-9.30882-4.24917-13.15719Z" fill="#2f2e41"/></g><path d="M0,455.98619c0,.66003,.53003,1.19,1.19006,1.19H404.48004c.65997,0,1.19-.52997,1.19-1.19,0-.65997-.53003-1.19-1.19-1.19H1.19006c-.66003,0-1.19006,.53003-1.19006,1.19Z" fill="#ccc"/><path d="M351.72174,457.17619H175.29695c-21.51191,0-39.01333-17.50142-39.01333-39.01374V39.01333c0-21.51191,17.50142-39.01333,39.01333-39.01333h176.4248c21.51151,0,39.01293,17.50142,39.01293,39.01333V418.16245c0,21.51232-17.50142,39.01374-39.01293,39.01374Z" fill="#3f3d56"/><path d="M390.73483,139.4635c-.91025,0-1.65045,.74021-1.65045,1.65045v52.81453c0,.91025,.74021,1.65045,1.65045,1.65045s1.65045-.74021,1.65045-1.65045v-52.81453c0-.91025-.74021-1.65045-1.65045-1.65045Z" fill="#3f3d56"/><path d="M387.0215,39.01362V418.15594c0,18.7244-14.57349,34.04062-33.00082,35.22894h-.00826c-.27234,.01652-.54463,.03304-.82523,.0413-.48691,.02473-.97376,.03299-1.46888,.03299,0,0-1.81551-.13206-5.13294-.37962-3.35042-.24756-8.22749-.61892-14.30946-1.10578-1.82372-.14032-3.74651-.29712-5.77659-.46213-4.04358-.33011-8.48331-.69321-13.24488-1.10583-1.89801-.1568-3.86206-.33006-5.86735-.50338-10.24931-.883-21.72824-1.91453-33.83431-3.08634-2.04655-.18984-4.10961-.38788-6.1892-.59419-.54463-.05777-1.09757-.10728-1.65045-.16506-8.63189-.84996-125.71564-23.47767-125.71564-27.90092V39.01362c0-19.50007,15.80312-35.30319,35.30324-35.30319h21.07628c3.36694,0,6.07366,2.62422,6.36252,5.9829,.02473,.22283,.04951,.4456,.09076,.66843,.61066,3.3752,3.70526,5.72708,7.13818,5.72708h107.08205c3.43292,0,6.52752-2.35188,7.13818-5.72708,.04125-.22283,.06603-.4456,.09081-.66843,.28881-3.35868,2.99553-5.9829,6.36247-5.9829h21.07633c19.50007,0,35.30319,15.80312,35.30319,35.30319Z" fill="#fff"/><path d="M135.45854,99.8526c-.91025,0-1.65045,.74021-1.65045,1.65045v13.20363c0,.91025,.74021,1.65045,1.65045,1.65045s1.65045-.74021,1.65045-1.65045v-13.20363c0-.91025-.74021-1.65045-1.65045-1.65045Z" fill="#3f3d56"/><path d="M135.45854,139.4635c-.91025,0-1.65045,.74021-1.65045,1.65045v25.58204c0,.91025,.74021,1.65045,1.65045,1.65045s1.65045-.74021,1.65045-1.65045v-25.58204c0-.91025-.74021-1.65045-1.65045-1.65045Z" fill="#3f3d56"/><path d="M135.45854,175.77349c-.91025,0-1.65045,.74021-1.65045,1.65045v25.58204c0,.91025,.74021,1.65045,1.65045,1.65045s1.65045-.74021,1.65045-1.65045v-25.58204c0-.91025-.74021-1.65045-1.65045-1.65045Z" fill="#3f3d56"/><rect x="163.92888" y="9.49024" width="32.18385" height="4.12614" rx=".31021" ry=".31021" fill="#e6e6e6"/><circle cx="335.85723" cy="10.31547" r="3.30091" fill="#e6e6e6"/><circle cx="344.93473" cy="10.31547" r="3.30091" fill="#e6e6e6"/><circle cx="354.01223" cy="10.31547" r="3.30091" fill="#e6e6e6"/><path d="M333.5095,95.15896H193.5095c-2.20557,0-4-1.79443-4-4s1.79443-4,4-4h140c2.20557,0,4,1.79443,4,4s-1.79443,4-4,4Z" fill="#e6e6e6"/><path d="M357.04981,411.65896h-52c-2.20557,0-4-1.79443-4-4s1.79443-4,4-4h52c2.20557,0,4,1.79443,4,4s-1.79443,4-4,4Z" fill="#e6e6e6"/><path d="M218.04981,411.65896h-52c-2.20557,0-4-1.79443-4-4s1.79443-4,4-4h52c2.20557,0,4,1.79443,4,4s-1.79443,4-4,4Z" fill="#e6e6e6"/><rect x="165.96895" y="105.90701" width="195.08105" height="1" fill="#3f3d56"/><path d="M333.5095,156.15896H193.5095c-2.20557,0-4-1.79443-4-4s1.79443-4,4-4h140c2.20557,0,4,1.79443,4,4s-1.79443,4-4,4Z" fill="#e6e6e6"/><rect x="165.96895" y="166.90701" width="195.08105" height="1" fill="#3f3d56"/><path d="M333.5095,217.15896H193.5095c-2.20557,0-4-1.79443-4-4s1.79443-4,4-4h140c2.20557,0,4,1.79443,4,4s-1.79443,4-4,4Z" fill="#e6e6e6"/><rect x="165.96895" y="227.90701" width="195.08105" height="1" fill="#3f3d56"/><rect x="165.96895" y="279.90701" width="195.08105" height="1" fill="#3f3d56"/><rect x="165.96895" y="331.90701" width="195.08105" height="1" fill="#3f3d56"/><circle cx="264.88227" cy="310.48573" r="58" fill="#6587e4"/></svg>

<svg width="406" height="458" viewBox="0 0 406 458" fill="none" xmlns="http://www.w3.org/2000/svg">
<g clip-path="url(#clip0_101_143)">
<path d="M155.533 279.994C157.838 284.457 157.405 289.264 154.565 290.731C151.725 292.198 147.554 289.769 145.249 285.307C144.24 283.353 143.756 281.334 143.768 279.558L134.237 260.526L143.264 256.243L151.701 275.459C153.157 276.477 154.524 278.041 155.533 279.994Z" fill="#FFB6B6"/>
<path d="M84.6053 451.717L92.7316 451.717L96.5974 420.372L84.6036 420.373L84.6053 451.717Z" fill="#FFB6B6"/>
<path d="M112.447 451.533C112.7 451.959 112.834 453.335 112.834 453.83C112.834 455.353 111.599 456.588 110.076 456.588H84.9093C83.8701 456.588 83.0277 455.746 83.0277 454.707V453.659C83.0277 453.659 81.7827 450.51 84.3459 446.629C84.3459 446.629 87.5315 449.668 92.2917 444.908L93.6955 442.365L103.857 449.796L109.489 450.489C110.721 450.641 111.813 450.466 112.447 451.533Z" fill="#2F2E41"/>
<path d="M46.4811 451.717L54.6075 451.717L58.4732 420.372L46.4795 420.373L46.4811 451.717Z" fill="#FFB6B6"/>
<path d="M74.323 451.533C74.576 451.959 74.7096 453.335 74.7096 453.83C74.7096 455.353 73.4747 456.588 71.9515 456.588H46.7851C45.746 456.588 44.9035 455.746 44.9035 454.707V453.659C44.9035 453.659 43.6586 450.51 46.2217 446.629C46.2217 446.629 49.4074 449.668 54.1676 444.908L55.5713 442.365L65.7324 449.796L71.3646 450.489C72.5967 450.641 73.6892 450.466 74.323 451.533Z" fill="#2F2E41"/>
<path d="M34.9785 266.777L31.5551 287.698L42.2057 355.406L44.8684 437.188H59.2479L66.55 359.97L65.7893 309L82.9063 437.948H97.849L99.2627 276.287L34.9785 266.777Z" fill="#2F2E41"/>
<path d="M52.8564 158.369H79.7765L103.067 172.063C99.4417 171.141 96.6414 204.771 96.5461 234.486C96.5398 236.46 94.5832 238.73 94.6013 240.659C94.6169 242.321 96.604 243.648 96.6385 245.26C96.6708 246.767 96.7114 248.249 96.7608 249.7C96.8018 250.904 94.5482 252.5 94.6013 253.659C94.6692 255.139 97.0477 256.168 97.136 257.561C97.679 266.127 98.6149 272.913 100.023 276.287C100.023 276.287 39.9234 293.024 35.3589 267.158C35.3589 267.158 35.6195 257.861 35.583 245.022C35.5797 243.883 34.6096 242.85 34.6013 241.659C34.5951 240.774 35.5519 239.741 35.5426 238.831C35.5349 238.083 34.6113 237.422 34.6013 236.659C34.5953 236.204 35.5036 235.652 35.4968 235.193C35.1318 210.779 33.4926 180.012 27.7513 172.063L52.8564 158.369Z" fill="#6587E4"/>
<path d="M79.4829 158.369C79.4829 158.369 96.9267 164.708 102.462 169.758C105.403 172.442 125.129 223.034 125.129 223.034L152.526 270.748L138.285 276.158L109.153 232.163L96.2196 203.254L79.4829 158.369Z" fill="#6587E4"/>
<path d="M43.3013 281.8C45.8455 286.131 45.6738 290.954 42.9178 292.573C40.1618 294.192 35.8651 291.994 33.3209 287.663C32.2072 285.767 31.6141 283.777 31.5301 282.003L20.9798 263.516L29.7604 258.75L39.229 277.48C40.7381 278.417 42.1876 279.904 43.3013 281.8Z" fill="#FFB6B6"/>
<path d="M49.0525 181.953L41.4449 164.455C41.4449 164.455 23.5671 170.161 23.5671 178.529C23.5671 178.529 12.9164 242.433 14.438 258.409L24.3278 275.906L38.4019 264.875L29.6532 244.715L49.0525 181.953Z" fill="#6587E4"/>
<path d="M33.4067 295.629L42.3804 277.808L52.8563 292.263L43.428 301.392L33.4067 295.629Z" fill="#2F2E41"/>
<path d="M66.0627 153.342C75.6783 153.342 83.4733 145.547 83.4733 135.932C83.4733 126.316 75.6783 118.521 66.0627 118.521C56.4471 118.521 48.6521 126.316 48.6521 135.932C48.6521 145.547 56.4471 153.342 66.0627 153.342Z" fill="#FFB6B6"/>
<path d="M79.6392 116.483C76.6137 115.514 75.1821 111.915 72.4145 110.355C69.3538 108.63 65.6923 107.553 62.3172 108.529C60.2463 109.128 58.4422 110.451 56.3698 111.045C56.0076 111.149 55.6264 111.221 55.2395 111.258C53.0108 111.47 51.0974 112.806 49.9836 114.749L49.9545 114.799C49.3007 115.918 48.3712 116.844 47.5464 117.844C44.5363 121.492 42.9071 126.232 42.9406 130.961C42.9767 136.045 44.9326 141.092 48.3317 144.872L49.2 144.471C51.2983 146.284 53.3966 148.097 55.495 149.909C54.3531 145.789 53.2005 141.524 53.805 137.291C54.4096 133.058 57.256 128.835 61.4529 128.018C63.0406 127.709 64.7151 127.896 66.2563 127.405C67.7976 126.914 69.2171 125.33 68.6884 123.801C69.6427 126.324 73.2023 126.175 75.6523 127.304C81.1357 129.83 79.1284 125.926 83.8884 129.64C85.4963 120.729 91.6551 120.331 79.6392 116.483Z" fill="#2F2E41"/>
<path d="M0 455.986C0 456.646 0.53003 457.176 1.19006 457.176H404.48C405.14 457.176 405.67 456.646 405.67 455.986C405.67 455.326 405.14 454.796 404.48 454.796H1.19006C0.53003 454.796 0 455.326 0 455.986Z" fill="#CCCCCC"/>
<path d="M351.722 457.176H175.297C153.785 457.176 136.284 439.675 136.284 418.162V39.0133C136.284 17.5014 153.785 0 175.297 0H351.722C373.233 0 390.735 17.5014 390.735 39.0133V418.162C390.735 439.675 373.233 457.176 351.722 457.176Z" fill="#3F3D56"/>
<path d="M390.735 139.464C389.825 139.464 389.084 140.204 389.084 141.114V193.928C389.084 194.839 389.825 195.579 390.735 195.579C391.645 195.579 392.385 194.839 392.385 193.928V141.114C392.385 140.204 391.645 139.464 390.735 139.464Z" fill="#3F3D56"/>
<path d="M387.022 39.0136V418.156C387.022 436.88 372.448 452.197 354.021 453.385H354.012C353.74 453.401 353.468 453.418 353.187 453.426C352.7 453.451 352.213 453.459 351.718 453.459C351.718 453.459 349.903 453.327 346.585 453.08C343.235 452.832 338.358 452.461 332.276 451.974C330.452 451.833 328.529 451.677 326.499 451.512C322.456 451.182 318.016 450.818 313.254 450.406C311.356 450.249 309.392 450.076 307.387 449.902C297.138 449.019 285.659 447.988 273.553 446.816C271.506 446.626 269.443 446.428 267.364 446.222C266.819 446.164 266.266 446.115 265.713 446.057C257.081 445.207 139.997 422.579 139.997 418.156V39.0136C139.997 19.5136 155.801 3.71045 175.301 3.71045H196.377C199.744 3.71045 202.451 6.33467 202.74 9.69335C202.764 9.91618 202.789 10.1389 202.83 10.3618C203.441 13.737 206.536 16.0889 209.968 16.0889H317.051C320.483 16.0889 323.578 13.737 324.189 10.3618C324.23 10.1389 324.255 9.91618 324.28 9.69335C324.568 6.33467 327.275 3.71045 330.642 3.71045H351.718C371.218 3.71045 387.022 19.5136 387.022 39.0136Z" fill="#F2F2F2"/>
<path d="M135.459 99.8526C134.548 99.8526 133.808 100.593 133.808 101.503V114.707C133.808 115.617 134.548 116.357 135.459 116.357C136.369 116.357 137.109 115.617 137.109 114.707V101.503C137.109 100.593 136.369 99.8526 135.459 99.8526Z" fill="#3F3D56"/>
<path d="M135.459 139.464C134.548 139.464 133.808 140.204 133.808 141.114V166.696C133.808 167.606 134.548 168.346 135.459 168.346C136.369 168.346 137.109 167.606 137.109 166.696V141.114C137.109 140.204 136.369 139.464 135.459 139.464Z" fill="#3F3D56"/>
<path d="M135.459 175.773C134.548 175.773 133.808 176.514 133.808 177.424V203.006C133.808 203.916 134.548 204.656 135.459 204.656C136.369 204.656 137.109 203.916 137.109 203.006V177.424C137.109 176.514 136.369 175.773 135.459 175.773Z" fill="#3F3D56"/>
<path d="M195.803 9.49023H164.239C164.068 9.49023 163.929 9.62912 163.929 9.80044V13.3062C163.929 13.4775 164.068 13.6164 164.239 13.6164H195.803C195.974 13.6164 196.113 13.4775 196.113 13.3062V9.80044C196.113 9.62912 195.974 9.49023 195.803 9.49023Z" fill="#E6E6E6"/>
<path d="M335.857 13.6163C337.68 13.6163 339.158 12.1385 339.158 10.3154C339.158 8.49239 337.68 7.01453 335.857 7.01453C334.034 7.01453 332.556 8.49239 332.556 10.3154C332.556 12.1385 334.034 13.6163 335.857 13.6163Z" fill="#E6E6E6"/>
<path d="M344.935 13.6163C346.758 13.6163 348.236 12.1385 348.236 10.3154C348.236 8.49239 346.758 7.01453 344.935 7.01453C343.112 7.01453 341.634 8.49239 341.634 10.3154C341.634 12.1385 343.112 13.6163 344.935 13.6163Z" fill="#E6E6E6"/>
<path d="M354.012 13.6163C355.835 13.6163 357.313 12.1385 357.313 10.3154C357.313 8.49239 355.835 7.01453 354.012 7.01453C352.189 7.01453 350.711 8.49239 350.711 10.3154C350.711 12.1385 352.189 13.6163 354.012 13.6163Z" fill="#E6E6E6"/>
<path d="M333.51 95.1589H193.51C191.304 95.1589 189.51 93.3645 189.51 91.1589C189.51 88.9534 191.304 87.1589 193.51 87.1589H333.51C335.715 87.1589 337.51 88.9534 337.51 91.1589C337.51 93.3645 335.715 95.1589 333.51 95.1589Z" fill="#E6E6E6"/>
<path d="M357.05 411.659H305.05C302.844 411.659 301.05 409.865 301.05 407.659C301.05 405.453 302.844 403.659 305.05 403.659H357.05C359.255 403.659 361.05 405.453 361.05 407.659C361.05 409.865 359.255 411.659 357.05 411.659Z" fill="#E6E6E6"/>
<path d="M218.05 411.659H166.05C163.844 411.659 162.05 409.865 162.05 407.659C162.05 405.453 163.844 403.659 166.05 403.659H218.05C220.255 403.659 222.05 405.453 222.05 407.659C222.05 409.865 220.255 411.659 218.05 411.659Z" fill="#E6E6E6"/>
<path d="M361.05 105.907H165.969V106.907H361.05V105.907Z" fill="#3F3D56"/>
<path d="M333.51 156.159H193.51C191.304 156.159 189.51 154.365 189.51 152.159C189.51 149.953 191.304 148.159 193.51 148.159H333.51C335.715 148.159 337.51 149.953 337.51 152.159C337.51 154.365 335.715 156.159 333.51 156.159Z" fill="#E6E6E6"/>
<path d="M361.05 166.907H165.969V167.907H361.05V166.907Z" fill="#3F3D56"/>
<path d="M333.51 217.159H193.51C191.304 217.159 189.51 215.365 189.51 213.159C189.51 210.953 191.304 209.159 193.51 209.159H333.51C335.715 209.159 337.51 210.953 337.51 213.159C337.51 215.365 335.715 217.159 333.51 217.159Z" fill="#E6E6E6"/>
<path d="M361.05 227.907H165.969V228.907H361.05V227.907Z" fill="#3F3D56"/>
<path d="M361.05 279.907H165.969V280.907H361.05V279.907Z" fill="#3F3D56"/>
<path d="M361.05 331.907H165.969V332.907H361.05V331.907Z" fill="#3F3D56"/>
<path d="M264.882 368.486C296.915 368.486 322.882 342.518 322.882 310.486C322.882 278.453 296.915 252.486 264.882 252.486C232.85 252.486 206.882 278.453 206.882 310.486C206.882 342.518 232.85 368.486 264.882 368.486Z" fill="#6587E4"/>
</g>
<defs>
<clipPath id="clip0_101_143">
<rect width="405.67" height="457.176" fill="white"/>
</clipPath>
</defs>
</svg>
